svg/color/von.svg

<svg width="40" height="40" viewBox="0 0 40 40" fill="none" xmlns="http://www.w3.org/2000/svg">
<g clip-path="url(#clip0_821_4051)">
<path d="M20 0C31.0457 0 40 8.9543 40 20C40 31.0457 31.0457 40 20 40C8.95431 40 7.90517e-06 31.0457 0 20C6.58765e-07 8.95431 8.95431 1.97595e-06 20 0Z" fill="#D4D7F3"/>
<path d="M26 6C30.4183 6 34 9.58172 34 14V26C34 30.4183 30.4183 34 26 34H14C9.58172 34 6 30.4183 6 26V14C6 9.58172 9.58172 6 14 6H26Z" fill="#2639C3"/>
<path d="M17.5933 16.885L14.975 23.1317H13.2667L11.9783 18.1459C11.9 17.8392 11.8325 17.7267 11.5942 17.5975C11.2058 17.3867 10.5642 17.1892 10 17.0659L10.0383 16.885H12.7883C12.968 16.8848 13.1419 16.9489 13.2785 17.0657C13.4151 17.1824 13.5055 17.3441 13.5333 17.5217L14.2142 21.1367L15.8958 16.885H17.5933ZM24.2875 21.0925C24.2942 19.4434 22.0075 19.3525 22.0233 18.6159C22.0283 18.3917 22.2417 18.1534 22.7083 18.0925C23.2552 18.0406 23.806 18.1373 24.3025 18.3725L24.5858 17.0475C24.1025 16.8658 23.5906 16.7718 23.0742 16.77C21.4767 16.77 20.3525 17.62 20.3425 18.8359C20.3325 19.735 21.145 20.2359 21.7575 20.5359C22.3875 20.8417 22.5992 21.0384 22.5958 21.3117C22.5917 21.7317 22.0942 21.9159 21.6292 21.9234C20.8167 21.9359 20.3458 21.7042 19.9692 21.5292L19.6767 22.8975C20.0542 23.0709 20.7508 23.2225 21.4733 23.2292C23.1708 23.2292 24.2817 22.3909 24.2875 21.0925ZM28.505 23.1317H30L28.6958 16.885H27.3158C27.1684 16.8837 27.0239 16.9266 26.9012 17.0083C26.7785 17.0901 26.6831 17.2068 26.6275 17.3434L24.2033 23.1317H25.9L26.2375 22.1984H28.3108L28.505 23.1317ZM26.7025 20.9184L27.5525 18.5725L28.0425 20.9184H26.7025ZM19.9025 16.885L18.5667 23.1317H16.95L18.2875 16.885H19.9025Z" fill="white"/>
</g>
<defs>
<clipPath id="clip0_821_4051">
<rect width="40" height="40" fill="white"/>
</clipPath>
</defs>
</svg>

<svg xmlns="http://www.w3.org/2000/svg" width="40" height="40" fill="none" viewBox="0 0 40 40"><g clip-path="url(#von_svg-a)"><path fill="#D4D7F3" d="M20 0c11.046 0 20 8.954 20 20s-8.954 20-20 20S0 31.046 0 20 8.954 0 20 0"/><path fill="#2639C3" d="M26 6a8 8 0 0 1 8 8v12a8 8 0 0 1-8 8H14a8 8 0 0 1-8-8V14a8 8 0 0 1 8-8z"/><path fill="#fff" d="m17.593 16.885-2.618 6.247h-1.708l-1.289-4.986c-.078-.307-.146-.42-.384-.549-.388-.21-1.03-.408-1.594-.531l.038-.181h2.75a.75.75 0 0 1 .745.637l.681 3.615 1.682-4.252zm6.695 4.208c.006-1.65-2.28-1.74-2.265-2.477.005-.224.219-.463.685-.523a3.05 3.05 0 0 1 1.595.28l.283-1.326a4.3 4.3 0 0 0-1.512-.277c-1.597 0-2.722.85-2.732 2.066-.01.899.803 1.4 1.416 1.7.63.306.841.502.838.776-.004.42-.502.604-.967.611-.812.013-1.283-.219-1.66-.394l-.292 1.369c.377.173 1.074.325 1.796.331 1.698 0 2.809-.838 2.815-2.136m4.217 2.039H30l-1.304-6.247h-1.38a.74.74 0 0 0-.688.458l-2.425 5.789H25.9l.338-.934h2.073zm-1.802-2.214.85-2.345.49 2.345zm-6.8-4.033-1.336 6.247H16.95l1.338-6.247z"/></g><defs><clipPath id="von_svg-a"><path fill="#fff" d="M0 0h40v40H0z"/></clipPath></defs></svg>
